COLOR/mimes 16/16/application-json.svg

<svg height="16" viewBox="0 0 4.233125 4.233125" width="16" xmlns="http://www.w3.org/2000/svg" xmlns:xlink="http://www.w3.org/1999/xlink"><linearGradient id="a"><stop offset="0" stop-color="#3b3b3b"/><stop offset="1" stop-color="#fff"/></linearGradient><linearGradient id="b" gradientUnits="userSpaceOnUse" x1="328" x2="328" y1="237" y2="251"><stop offset="0" stop-color="#fff"/><stop offset=".125" stop-color="#fff" stop-opacity=".098039"/><stop offset=".92500001" stop-color="#fff" stop-opacity=".098039"/><stop offset="1" stop-color="#fff" stop-opacity=".498039"/></linearGradient><clipPath id="c"><path d="m325.09646 237c-2.80769 0-3.10979.28839-3.09603 3.10176v3.89824 3.89824c-.0138 2.81337.28834 3.10176 3.09603 3.10176h5.8075c2.8077 0 3.09604-.28835 3.09604-3.10176v-3.89824-3.89824c0-2.8134-.28835-3.10176-3.09604-3.10176z"/></clipPath><linearGradient id="d" gradientTransform="matrix(.99884 0 0 .998699 689.00774 -388.84375)" gradientUnits="userSpaceOnUse" x1="-666.11664" x2="-553.2699" xlink:href="#a" y1="413.04492" y2="525.90759"/><linearGradient id="e" gradientTransform="matrix(.99884 0 0 .998699 689.00774 -388.84375)" gradientUnits="userSpaceOnUse" x1="-553.26971" x2="-666.11639" xlink:href="#a" y1="525.90778" y2="413.0452"/><linearGradient id="f" gradientTransform="matrix(0 -.00953618 .00953591 0 -.942984 4.473641)" gradientUnits="userSpaceOnUse" x1="459.03448" x2="35.310345" y1="419.23337" y2="207.36522"><stop offset="0" stop-color="#f2f2f2"/><stop offset="1" stop-color="#f9f9f9"/></linearGradient><path d="m1.3483196.2645684c-.190237 0-.344431.00368-.48573304.027388-.141304.023732-.28264.073096-.390657.1808576-.108013.1077595-.157834.2495507-.181373.3911699-.02355.1416218-.02677.2964457-.02585.4872856v.7652915 1.031411c-.000793.190004.0024.344563.02585.485735.02355.141619.07336.283411.181373.39117.108017.107762.249353.157139.390657.180858.14130204.02373.29549604.02739.48573304.02739h1.536783c.190236 0 .344095-.0036.485216-.02739.141125-.02376.282477-.07353.390139-.181374.107661-.107844.157165-.249413.180857-.390654.0237-.141243.02739-.295131.02739-.485735v-1.031411-.7668416c0-.1906044-.0037-.3444917-.02739-.4857352-.02368-.1412409-.0732-.2828098-.180857-.390654-.107662-.1078441-.249014-.1576257-.390139-.1813735-.141121-.02375-.29498-.027388-.485216-.027388z" opacity=".1"/><path d="m1.3485206.2645684c-.74283204 0-.82275804.076299-.81911804.8206336v1.031359 1.031358c-.0037.744334.07629.820634.81911804.820634h1.536492c.742834 0 .81912-.07629.81912-.820634v-1.031358-1.031359c0-.7443421-.07629-.8206336-.81912-.8206336z" fill="none" opacity=".2" stroke="#000" stroke-width=".529141"/><path d="m1.3485206.2645684c-.74283204 0-.82275804.076299-.81911804.8206336v1.031359 1.031358c-.0037.744334.07629.820634.81911804.820634h1.536492c.742834 0 .81912-.07629.81912-.820634v-1.031358-1.031359c0-.7443421-.07629-.8206336-.81912-.8206336z" fill="url(#f)"/><g enable-background="new" fill-rule="evenodd" transform="matrix(.01322852 0 0 .01322852 1.05843 1.058279)"><path d="m79.8646 119.09957c35.39768 48.25534 70.03957-13.46852 69.98868-50.58675-.0602-43.88605-44.54091-68.41369-70.01768-68.41369-40.89242 0-79.8356 33.79608-79.8356 80.03589 0 51.396 44.64038 79.86497 79.8356 79.86497-7.96447-1.14675-34.5062-6.83395-34.86292-67.96677-.23987-41.3466 13.48757-57.86551 34.80527-50.59905.47743.17707 23.51392 9.26451 23.51392 38.95053 0 29.55992-23.42727 38.71487-23.42727 38.71487z" fill="url(#d)"/><path d="m79.82327 41.40081c-23.39005-8.06188-52.04302 11.21581-52.04302 49.82881 0 63.04798 46.72055 68.77037 52.38416 68.77037 40.89242 0 79.83559-33.79608 79.83559-80.03589 0-51.396-44.64038-79.86497-79.83559-79.86497 9.74811-1.35 52.54087 10.54991 52.54087 69.0368 0 38.14117-31.95286 58.90496-52.73547 50.03344-.47743-.17707-23.51392-9.26451-23.51392-38.95053 0-29.55992 23.36738-38.81803 23.36738-38.81803z" fill="url(#e)"/></g><path d="m2.1167106.2645684v3.7039846h.768392c.742834 0 .81903-.07624.81903-.820581v-1.031411-1.0314119c0-.7443422-.0762-.8205807-.81903-.8205807z" fill="#fff" opacity=".2"/><path d="m.52928856 2.116561v1.031411c-.0037.744334.0762.820581.81903104.820581h1.536783c.742834 0 .81903-.07624.81903-.820581v-1.031411z" fill="#fff" opacity=".2"/><path clip-path="url(#c)" d="m325.09646 237c-2.80769 0-3.10979.28839-3.09603 3.10176v3.89824 3.89824c-.0138 2.81337.28834 3.10176 3.09603 3.10176h5.8075c2.8077 0 3.09604-.28835 3.09604-3.10176v-3.89824-3.89824c0-2.8134-.28835-3.10176-3.09604-3.10176z" fill="none" opacity=".4" stroke="url(#b)" stroke-width="2" transform="matrix(.26457031 0 0 .26457031 -84.662351 -62.438596)"/></svg>

<?xml version="1.0" encoding="UTF-8" standalone="no"?>
<svg
   xmlns:dc="http://purl.org/dc/elements/1.1/"
   xmlns:cc="http://creativecommons.org/ns#"
   xmlns:rdf="http://www.w3.org/1999/02/22-rdf-syntax-ns#"
   xmlns:svg="http://www.w3.org/2000/svg"
   xmlns="http://www.w3.org/2000/svg"
   xmlns:xlink="http://www.w3.org/1999/xlink"
   xmlns:sodipodi="http://sodipodi.sourceforge.net/DTD/sodipodi-0.dtd"
   xmlns:inkscape="http://www.inkscape.org/namespaces/inkscape"
   width="16"
   height="16"
   version="1.1"
   viewBox="0 0 4.233125 4.233125"
   id="svg50"
   sodipodi:docname="application-json.svg"
   inkscape:version="0.92.4 (5da689c313, 2019-01-14)">
  <metadata
     id="metadata54">
    <rdf:RDF>
      <cc:Work
         rdf:about="">
        <dc:format>image/svg+xml</dc:format>
        <dc:type
           rdf:resource="http://purl.org/dc/dcmitype/StillImage" />
        <dc:title />
      </cc:Work>
    </rdf:RDF>
  </metadata>
  <sodipodi:namedview
     pagecolor="#ffffff"
     bordercolor="#666666"
     borderopacity="1"
     objecttolerance="10"
     gridtolerance="10"
     guidetolerance="10"
     inkscape:pageopacity="0"
     inkscape:pageshadow="2"
     inkscape:window-width="793"
     inkscape:window-height="480"
     id="namedview52"
     showgrid="false"
     inkscape:zoom="0.921875"
     inkscape:cx="101.72059"
     inkscape:cy="128"
     inkscape:window-x="0"
     inkscape:window-y="27"
     inkscape:window-maximized="0"
     inkscape:current-layer="svg50" />
  <defs
     id="defs24">
    <linearGradient
       id="linearGradient3005"
       x1="-666.117"
       x2="-553.27002"
       y1="413.04501"
       y2="525.90802"
       gradientTransform="matrix(0.99884,0,0,0.998699,689.00774,-388.84375)"
       gradientUnits="userSpaceOnUse"
       xlink:href="#linearGradient8385" />
    <linearGradient
       id="linearGradient8385">
      <stop
         style="stop-color:#3b3b3b"
         offset="0"
         id="stop3" />
      <stop
         style="stop-color:#ffffff"
         offset="1"
         id="stop5" />
    </linearGradient>
    <linearGradient
       id="linearGradient3002"
       x1="-553.27002"
       x2="-666.11603"
       y1="525.90802"
       y2="413.04501"
       gradientTransform="matrix(0.99884,0,0,0.998699,689.00774,-388.84375)"
       gradientUnits="userSpaceOnUse"
       xlink:href="#linearGradient8385" />
    <linearGradient
       id="linearGradient4226"
       x1="529.65503"
       x2="-35.310001"
       y1="401.58401"
       y2="119.093"
       gradientTransform="matrix(0,-0.11988932,0.11988589,0,0.36277965,292.5483)"
       gradientUnits="userSpaceOnUse">
      <stop
         style="stop-color:#f2f2f2"
         offset="0"
         id="stop9" />
      <stop
         style="stop-color:#f9f9f9"
         offset="1"
         id="stop11" />
    </linearGradient>
    <linearGradient
       id="linearGradient4358"
       x1="88"
       x2="488"
       y1="88"
       y2="488"
       gradientUnits="userSpaceOnUse">
      <stop
         style="stop-color:#000000;stop-opacity:.58823532"
         offset="0"
         id="stop14" />
      <stop
         style="stop-color:#000000;stop-opacity:0"
         offset=".88"
         id="stop16" />
      <stop
         style="stop-color:#000000"
         offset="1"
         id="stop18" />
    </linearGradient>
    <filter
       id="filter4346"
       width="1.026"
       height="1.022"
       x="-0.0099999998"
       y="-0.0099999998"
       style="color-interpolation-filters:sRGB">
      <feGaussianBlur
         stdDeviation="2.12"
         id="feGaussianBlur21" />
    </filter>
    <linearGradient
       inkscape:collect="always"
       xlink:href="#linearGradient927"
       id="linearGradient993"
       x1="328"
       y1="237"
       x2="328"
       y2="251"
       gradientUnits="userSpaceOnUse" />
    <linearGradient
       inkscape:collect="always"
       id="linearGradient927">
      <stop
         style="stop-color:#ffffff;stop-opacity:1;"
         offset="0"
         id="stop923" />
      <stop
         id="stop933"
         offset="0.125"
         style="stop-color:#ffffff;stop-opacity:0.09803922" />
      <stop
         id="stop931"
         offset="0.92500001"
         style="stop-color:#ffffff;stop-opacity:0.09803922" />
      <stop
         style="stop-color:#ffffff;stop-opacity:0.49803922"
         offset="1"
         id="stop925" />
    </linearGradient>
    <clipPath
       clipPathUnits="userSpaceOnUse"
       id="clipPath983">
      <path
         sodipodi:nodetypes="scccssscsss"
         inkscape:connector-curvature="0"
         id="path985"
         d="m 325.09646,237 c -2.80769,0 -3.10979,0.28839 -3.09603,3.10176 V 244 v 3.89824 c -0.0138,2.81337 0.28834,3.10176 3.09603,3.10176 h 5.8075 C 333.71166,251 334,250.71165 334,247.89824 V 244 240.10176 C 334,237.28836 333.71165,237 330.90396,237 Z"
         style="color:#000000;display:inline;overflow:visible;visibility:visible;opacity:1;fill:#46a926;fill-opacity:1;fill-rule:nonzero;stroke:none;stroke-width:2;stroke-miterlimit:4;stroke-dasharray:none;stroke-opacity:1;marker:none;enable-background:accumulate" />
    </clipPath>
    <linearGradient
       inkscape:collect="always"
       xlink:href="#linearGradient8385"
       id="linearGradient1038"
       gradientUnits="userSpaceOnUse"
       gradientTransform="matrix(0.99884,0,0,0.998699,689.00774,-388.84375)"
       x1="-666.11664"
       y1="413.04492"
       x2="-553.2699"
       y2="525.90759" />
    <linearGradient
       inkscape:collect="always"
       xlink:href="#linearGradient8385"
       id="linearGradient1040"
       gradientUnits="userSpaceOnUse"
       gradientTransform="matrix(0.99884,0,0,0.998699,689.00774,-388.84375)"
       x1="-553.26971"
       y1="525.90778"
       x2="-666.11639"
       y2="413.0452" />
    <linearGradient
       inkscape:collect="always"
       xlink:href="#linearGradient4338"
       id="linearGradient920"
       gradientUnits="userSpaceOnUse"
       gradientTransform="matrix(0,-0.00953618,0.00953591,0,-0.94298444,4.473641)"
       x1="459.03448"
       y1="419.23337"
       x2="35.310345"
       y2="207.36522" />
    <linearGradient
       inkscape:collect="always"
       id="linearGradient4338">
      <stop
         style="stop-color:#f2f2f2;stop-opacity:1"
         offset="0"
         id="stop4340" />
      <stop
         style="stop-color:#f9f9f9;stop-opacity:1"
         offset="1"
         id="stop4342" />
    </linearGradient>
  </defs>
  <path
     style="color:#000000;font-style:normal;font-variant:normal;font-weight:normal;font-stretch:normal;font-size:medium;line-height:normal;font-family:sans-serif;font-variant-ligatures:normal;font-variant-position:normal;font-variant-caps:normal;font-variant-numeric:normal;font-variant-alternates:normal;font-feature-settings:normal;text-indent:0;text-align:start;text-decoration:none;text-decoration-line:none;text-decoration-style:solid;text-decoration-color:#000000;letter-spacing:normal;word-spacing:normal;text-transform:none;writing-mode:lr-tb;direction:ltr;text-orientation:mixed;dominant-baseline:auto;baseline-shift:baseline;text-anchor:start;white-space:normal;shape-padding:0;clip-rule:nonzero;display:inline;overflow:visible;visibility:visible;opacity:0.1;isolation:auto;mix-blend-mode:normal;color-interpolation:sRGB;color-interpolation-filters:linearRGB;solid-color:#000000;solid-opacity:1;vector-effect:none;fill:#000000;fill-opacity:1;fill-rule:nonzero;stroke:none;stroke-width:0.52914065;stroke-linecap:butt;stroke-linejoin:miter;stroke-miterlimit:4;stroke-dasharray:none;stroke-dashoffset:0;stroke-opacity:1;marker:none;color-rendering:auto;image-rendering:auto;shape-rendering:auto;text-rendering:auto;enable-background:accumulate"
     d="m 1.3483196,0.2645684 c -0.190237,0 -0.344431,0.00368 -0.48573304,0.027388 -0.141304,0.023732 -0.28264,0.073096 -0.390657,0.1808576 -0.108013,0.1077595 -0.157834,0.2495507 -0.181373,0.3911699 -0.02355,0.1416218 -0.02677,0.2964457 -0.02585,0.4872856 V 2.116561 3.147972 c -7.93e-4,0.190004 0.0024,0.344563 0.02585,0.485735 0.02355,0.141619 0.07336,0.283411 0.181373,0.39117 0.108017,0.107762 0.249353,0.157139 0.390657,0.180858 0.14130204,0.02373 0.29549604,0.02739 0.48573304,0.02739 h 1.536783 c 0.190236,0 0.344095,-0.0036 0.485216,-0.02739 0.141125,-0.02376 0.282477,-0.07353 0.390139,-0.181374 0.107661,-0.107844 0.157165,-0.249413 0.180857,-0.390654 0.0237,-0.141243 0.02739,-0.295131 0.02739,-0.485735 V 2.116561 1.3497194 c 0,-0.1906044 -0.0037,-0.3444917 -0.02739,-0.4857352 -0.02368,-0.1412409 -0.0732,-0.2828098 -0.180857,-0.390654 -0.107662,-0.1078441 -0.249014,-0.1576257 -0.390139,-0.1813735 -0.141121,-0.02375 -0.29498,-0.027388 -0.485216,-0.027388 z"
     id="path997"
     inkscape:connector-curvature="0"
     sodipodi:nodetypes="scscccccccsscscscscscss" />
  <path
     sodipodi:nodetypes="scccssscsss"
     inkscape:connector-curvature="0"
     id="path928"
     d="m 1.3485206,0.2645684 c -0.74283204,0 -0.82275804,0.076299 -0.81911804,0.8206336 v 1.031359 1.031358 c -0.0037,0.744334 0.07629,0.820634 0.81911804,0.820634 h 1.536492 c 0.742834,0 0.81912,-0.07629 0.81912,-0.820634 V 2.116561 1.085202 c 0,-0.7443421 -0.07629,-0.8206336 -0.81912,-0.8206336 z"
     style="color:#000000;display:inline;overflow:visible;visibility:visible;opacity:0.2;fill:none;fill-opacity:1;fill-rule:nonzero;stroke:#000000;stroke-width:0.52914065;stroke-miterlimit:4;stroke-dasharray:none;stroke-opacity:1;marker:none;enable-background:accumulate" />
  <path
     style="color:#000000;display:inline;overflow:visible;visibility:visible;fill:url(#linearGradient920);fill-opacity:1;fill-rule:nonzero;stroke:none;stroke-width:0.26457033;marker:none;enable-background:accumulate"
     d="m 1.3485206,0.2645684 c -0.74283204,0 -0.82275804,0.076299 -0.81911804,0.8206336 v 1.031359 1.031358 c -0.0037,0.744334 0.07629,0.820634 0.81911804,0.820634 h 1.536492 c 0.742834,0 0.81912,-0.07629 0.81912,-0.820634 V 2.116561 1.085202 c 0,-0.7443421 -0.07629,-0.8206336 -0.81912,-0.8206336 z"
     id="path918"
     inkscape:connector-curvature="0"
     sodipodi:nodetypes="scccssscsss" />
  <g
     style="display:inline;enable-background:new"
     id="g991"
     transform="matrix(0.01322852,0,0,0.01322852,1.0584296,1.0582793)">
    <path
       inkscape:connector-curvature="0"
       style="color:#000000;display:inline;overflow:visible;visibility:visible;fill:url(#linearGradient1038);fill-opacity:1;fill-rule:evenodd;stroke:none;stroke-width:0.5;marker:none"
       id="path987"
       d="m 79.8646,119.09957 c 35.39768,48.25534 70.03957,-13.46852 69.98868,-50.58675 C 149.79308,24.62677 105.31237,0.09913 79.8356,0.09913 38.94318,0.09913 0,33.89521 0,80.13502 c 0,51.396 44.64038,79.86497 79.8356,79.86497 -7.96447,-1.14675 -34.5062,-6.83395 -34.86292,-67.96677 -0.23987,-41.3466 13.48757,-57.86551 34.80527,-50.59905 0.47743,0.17707 23.51392,9.26451 23.51392,38.95053 0,29.55992 -23.42727,38.71487 -23.42727,38.71487 z" />
    <path
       inkscape:connector-curvature="0"
       style="color:#000000;display:inline;overflow:visible;visibility:visible;fill:url(#linearGradient1040);fill-opacity:1;fill-rule:evenodd;stroke:none;stroke-width:0.5;marker:none"
       id="path989"
       d="M 79.82327,41.40081 C 56.43322,33.33893 27.78025,52.61662 27.78025,91.22962 c 0,63.04798 46.72055,68.77037 52.38416,68.77037 C 121.05683,159.99999 160,126.20391 160,79.9641 160,28.5681 115.35962,0.09913 80.16441,0.09913 c 9.74811,-1.35 52.54087,10.54991 52.54087,69.0368 0,38.14117 -31.95286,58.90496 -52.73547,50.03344 -0.47743,-0.17707 -23.51392,-9.26451 -23.51392,-38.95053 0,-29.55992 23.36738,-38.81803 23.36738,-38.81803 z" />
  </g>
  <path
     style="color:#000000;display:inline;overflow:visible;visibility:visible;opacity:0.2;fill:#ffffff;fill-opacity:1;fill-rule:nonzero;stroke:none;stroke-width:0.26457033;marker:none;enable-background:accumulate"
     d="M 2.1167106,0.2645684 V 3.968553 h 0.768392 c 0.742834,0 0.81903,-0.07624 0.81903,-0.820581 V 2.116561 1.0851491 c 0,-0.7443422 -0.0762,-0.8205807 -0.81903,-0.8205807 z"
     id="path1009"
     inkscape:connector-curvature="0" />
  <path
     style="color:#000000;display:inline;overflow:visible;visibility:visible;opacity:0.2;fill:#ffffff;fill-opacity:1;fill-rule:nonzero;stroke:none;stroke-width:0.26457033;marker:none;enable-background:accumulate"
     d="m 0.52928856,2.116561 v 1.031411 c -0.0037,0.744334 0.0762,0.820581 0.81903104,0.820581 h 1.536783 c 0.742834,0 0.81903,-0.07624 0.81903,-0.820581 V 2.116561 Z"
     id="path1016"
     inkscape:connector-curvature="0" />
  <path
     transform="matrix(0.26457031,0,0,0.26457031,-84.662351,-62.438596)"
     style="color:#000000;display:inline;overflow:visible;visibility:visible;opacity:0.4;fill:none;fill-opacity:1;fill-rule:nonzero;stroke:url(#linearGradient993);stroke-width:2;stroke-miterlimit:4;stroke-dasharray:none;stroke-opacity:1;marker:none;enable-background:accumulate"
     d="m 325.09646,237 c -2.80769,0 -3.10979,0.28839 -3.09603,3.10176 V 244 v 3.89824 c -0.0138,2.81337 0.28834,3.10176 3.09603,3.10176 h 5.8075 C 333.71166,251 334,250.71165 334,247.89824 V 244 240.10176 C 334,237.28836 333.71165,237 330.90396,237 Z"
     id="path937"
     inkscape:connector-curvature="0"
     sodipodi:nodetypes="scccssscsss"
     clip-path="url(#clipPath983)" />
</svg>
